X:515
T:Jig Runrig
R:jig
C:Fergie MacDonald (Scotland)
O:Scotland
Z:id:hn-jig-515
M:6/8
L:1/8
K:D
d2d BAA | FAA BAA | Bdd AAA | fee efe |
d3 BAA | FAA BAA | Bdd Aff |1 edd dfe :|2 edd d2g ||
faa eaa | daa caa | Bdd AAA | fee e2g |
faa eaa | daa caa | Bdd Aff | edd d2g |
faa eaa | daa caa | Bdd AAA | fee efe |
d3 BAA | FAA BAA | Bdd Aff | edd dfe ||

